packages/foundations/assets/icons/functional/images/arrows/arrow_up_right.svg

<svg xmlns="http://www.w3.org/2000/svg" width="32" height="32" fill="none"><path fill="#1A1C1F" fill-rule="evenodd" d="M11.013 8.633c-.642.401-.703 1.263-.115 1.652l.214.142 4.478.026 4.478.027-5.738 5.773c-5.021 5.05-5.746 5.8-5.798 5.991-.164.611.34 1.247.986 1.244.148-.001.342-.04.432-.087.089-.048 2.705-2.65 5.813-5.784s5.668-5.705 5.689-5.714c.022-.01.046 1.986.054 4.436l.014 4.454.16.17c.331.352.814.458 1.229.27.242-.11.484-.37.544-.584.022-.078.04-2.699.04-5.825 0-6.352.035-5.796-.381-6.114l-.197-.15-5.871-.014c-5.656-.013-5.877-.009-6.031.087"/></svg>

<svg width="32" height="32" viewBox="0 0 32 32" fill="none" xmlns="http://www.w3.org/2000/svg"><path d="M11.013 8.633 C 10.371 9.034,10.310 9.896,10.898 10.285 L 11.112 10.427 15.590 10.453 L 20.068 10.480 14.330 16.253 C 9.309 21.303,8.584 22.053,8.532 22.244 C 8.368 22.855,8.872 23.491,9.518 23.488 C 9.666 23.487,9.860 23.448,9.950 23.401 C 10.039 23.353,12.655 20.751,15.763 17.617 C 18.871 14.484,21.431 11.912,21.452 11.903 C 21.474 11.893,21.498 13.889,21.506 16.339 L 21.520 20.793 21.680 20.963 C 22.011 21.315,22.494 21.421,22.909 21.233 C 23.151 21.123,23.393 20.863,23.453 20.649 C 23.475 20.571,23.493 17.950,23.493 14.824 C 23.493 8.472,23.528 9.028,23.112 8.710 L 22.915 8.560 17.044 8.546 C 11.388 8.533,11.167 8.537,11.013 8.633 " fill="#1A1C1F" stroke="none" fill-rule="evenodd"></path></svg>
